X:0958
T:Mrs Baird's Strathsy.
S:James Aird (Glasgow): A Selection of Scotch, English, Irish, and Foreign Airs volume V
M:C
L:1/8
I: :: ||
N:Aird uses one sharp; all c's are sharpened by accidentals except the one
N:in bar 11, in effect |B<EB>G B=cde|, which I have assumed is a mistake.
Z:Jack Campin * www.campin.me.uk * 2009
K:E Dorian
d|B<EB>G B>GB<e|d>BA>G FADd|G>EB>G B>EB>e|fe^de E2E :|
A|e>fge  fdec  |d>BA>G FADd|e>fge  f>dec |fe^de E2E>B|
  e>fge  f>dec |d>BA>G FADd|B<EB>G Bcde  |fe^de E2E |]
<end>
<start>
